packages/kaspersky-hexa-ui-icons/src/iconsSVGs/16/NotInherit.svg

<svg width="16" height="16" viewBox="0 0 16 16" fill="none" xmlns="http://www.w3.org/2000/svg">
<path fill-rule="evenodd" clip-rule="evenodd" d="M11.2398 6.0001V4.23918C11.2398 2.44686 9.78679 0.993896 7.99447 0.993896C6.20215 0.993896 4.74918 2.44686 4.74918 4.23918V6.0001L4.6 6.0001C3.16406 6.0001 2 7.16416 2 8.6001V12.4001C2 13.836 3.16406 15.0001 4.6 15.0001H11.4C12.8359 15.0001 14 13.836 14 12.4001V8.6001C14 7.16416 12.8359 6.0001 11.4 6.0001L11.2398 6.0001ZM6.04918 4.23918C6.04918 3.16483 6.92012 2.2939 7.99447 2.2939C9.06882 2.2939 9.93976 3.16483 9.93976 4.23918V6.0001H6.04918V4.23918ZM3.3 8.6001C3.3 7.88213 3.88203 7.3001 4.6 7.3001H11.4C12.118 7.3001 12.7 7.88213 12.7 8.6001V12.4001C12.7 13.1181 12.118 13.7001 11.4 13.7001H4.6C3.88203 13.7001 3.3 13.1181 3.3 12.4001V8.6001Z" fill="black"/>
</svg>

<svg xmlns="http://www.w3.org/2000/svg" width="16" height="16" fill="none" viewBox="0 0 16 16"><path fill="#000" fill-rule="evenodd" d="M11.2398 6V4.239c0-1.7923-1.453-3.2452-3.2453-3.2452-1.7924 0-3.2453 1.453-3.2453 3.2453V6H4.6C3.164 6 2 7.164 2 8.6v3.8C2 13.8359 3.164 15 4.6 15h6.8c1.4359 0 2.6-1.1641 2.6-2.6V8.6C14 7.164 12.8359 6 11.4 6zM6.0492 4.239c0-1.0743.871-1.9452 1.9453-1.9452s1.9453.871 1.9453 1.9453V6H6.0492zM3.3 8.6c0-.718.582-1.3 1.3-1.3h6.8c.718 0 1.3.582 1.3 1.3v3.8c0 .7179-.582 1.3-1.3 1.3H4.6c-.718 0-1.3-.5821-1.3-1.3z"/></svg>
